X:239
T:The Rocky Hill Jig
R:jig
C:Bruce Osborne - Jan. 2003
Z:abc by bosborne@kos.net
M:6/8
L:1/8
K:Cmaj
G,|CB,C EDE|G^FG cBc|gec gec|Bcd BGD|\
CB,C EDE|G^FG cBc|gec dBG|GAB c2:|
|:e/f/|gcc acc|gec cBc|dBG GAB|cBA G2 e/f/|\
gcc acc|gec cBc|dBG GAB|ced c2:|
